X: 21341
T: IRISH SETT (tune 1)
C:
%R: march, reel
B: Elias Howe "The Musician's Companion" 1843 p.134 #1
S: http://imslp.org/wiki/The_Musician's_Companion_(Howe,_Elias)
Z: 2015 John Chambers <jc:trillian.mit.edu>
M: 2/4
L: 1/16
K: D
% - - - - - - - - - - - - - - - - - - - - - - - - - - - - -
V: 1 name="1"
dc |\
A4 F4 | D4 d4 | cdcB A2Bc | d2e2f2 FG |\
A4 F4 | D4 d4 | cdcB A2Bc | d4 d2 H|]
cd |\
e4 c2A2 | edcd B2e2 | c2d2B2c2 | A2B2c2 cd |\
e4 c2A2 | edcd B2e2 | c2d2B2c2 | A4 "^D.C."A4 |]
A2 |\
(d2e2f2)A2 | (d2e2f2)A2 | (e2f2g2)c2 | (d2e2f2)A2 |\
d2e2f2A2 | d2e2f2A2 | e2f2g2c2 | d4- "^D.C."d2 |]
% - - - - - - - - - - Dance description - - - - - - - - - -
%%begintext align
%% Right and left four,
%% balance four,
%% ladies chain,
%% promenade four,
%% sides the same.
%%endtext
% - - - - - - - - - - - - - - - - - - - - - - - - - - - - -
%%sep 1 1 300

%%sep 1 1 500

